hosted_logos/xline.svg

<svg xmlns="http://www.w3.org/2000/svg" role="img" viewBox="-1.22 -2.22 115.31 36.31"><g clip-path="url(#clip0_1782_1282)"><path fill="#212121" d="M103.757 21.4228h-8.0339c-.2089 0-.1949 0-.188.2081.0418.8323.1532 1.6506.3969 2.4413.5569 1.817 1.6151 3.2388 3.3556 4.0988.9324.4647 1.9284.6658 2.9724.7005 1.017.0277 2.019-.0624 2.973-.43 1.413-.5479 2.402-1.5258 2.966-2.9198.055-.1387.111-.1595.243-.1179 1.01.2843 2.012.5756 3.022.8461.153.0416.167.0902.118.2289-.682 1.9557-1.977 3.3775-3.801 4.3485-1.1.5825-2.27.9293-3.509 1.075-1.664.1941-3.314.1387-4.9287-.3121-2.6943-.7491-4.6366-2.4066-5.9315-4.8548-.6475-1.2276-1.0234-2.5453-1.2114-3.9185-.3063-2.2263-.2297-4.4318.3829-6.6026.5082-1.7962 1.3715-3.4052 2.6942-4.7438 1.3367-1.3524 2.931-2.22624 4.8105-2.58689 2.131-.40918 4.219-.24273 6.224.60339 2.13.9016 3.641 2.4551 4.588 4.5566.494 1.0958.78 2.247.94 3.433.167 1.2692.139 2.5453.146 3.8145 0 .1525-.084.1317-.174.1317h-8.055zm-1.761-2.9961h6.272c.14 0 .167-.0346.167-.1664-.02-.6034-.083-1.2068-.229-1.7963-.369-1.4217-1.072-2.6354-2.277-3.5232-1.594-1.1721-3.376-1.3524-5.256-.9779-1.2601.2497-2.3044.9086-3.1746 1.831-1.1766 1.2484-1.7823 2.7533-1.9493 4.4456-.014.1526.0208.1872.181.1872h6.2729-.007zm-33.2078 1.8175V9.17523c0-.18725.0557-.22193.2298-.215 1.0025.00694 1.998 0 3.0005 0 .1323 0 .1601.03468.1601.15952V12.31c0 .0625-.0557.1665.0627.1734.1044.0139.2158.0347.2854-.1109.5361-1.1374 1.3646-2.0182 2.4297-2.69098.7798-.49242 1.643-.7629 2.555-.90161.8424-.12483 1.6918-.14564 2.5411-.06935 1.6569.15951 3.1607.70048 4.386 1.85874.9329.8807 1.5246 1.9765 1.8797 3.1972.2994 1.0334.4247 2.0875.4247 3.1625v14.3841c0 .1595-.0348.208-.2019.208a232.87759 232.87759 0 0 0-3.105 0c-.1532 0-.188-.0346-.188-.1872V17.3798c0-1.0056-.1392-1.9835-.5778-2.892-.6892-1.4218-1.8171-2.2957-3.3835-2.58-1.3506-.2428-2.6664-.1318-3.9126.4577-1.4411.6866-2.3322 1.8448-2.7917 3.3429-.2228.7143-.3063 1.4495-.3063 2.1985v13.4062c0 .1664-.0348.215-.2088.215-1.0374-.007-2.0677-.007-3.105 0-.1393 0-.1811-.0347-.1811-.1734V20.2511l.007-.0069zM1.4873 31.0082c.33417-.5271.64746-1.0265.96074-1.5189.18797-.2982.38291-.5964.56391-.9016.07658-.1248.16013-.1734.31329-.1734 2.7012 0 5.40241 0 8.10366.007.1322 0 .2088-.0417.2854-.1388 2.3183-2.8782 4.6366-5.7494 6.9549-8.6276 1.6917-2.1014 3.3835-4.1959 5.0752-6.2974 2.0398-2.5245 4.0727-5.05588 6.1125-7.58037 1.2392-1.53967 2.4784-3.07239 3.7176-4.61205.0836-.0971.1602-.13871.2855-.13871h11.0554c.1393 0 .188.06473.1462.19419-.2506.74209-.5082 1.48418-.7588 2.2332-.0418.12484-.1044.15952-.2367.15952h-8.1384c-.1393 0-.2298.04854-.3203.15258-1.6012 1.97659-3.2094 3.94625-4.8106 5.9159-1.6918 2.08064-3.3905 4.16814-5.0822 6.24884-1.643 2.0182-3.286 4.0294-4.922 6.0477-1.8867 2.3164-3.7734 4.6397-5.66 6.9562-.5431.6658-1.0861 1.3316-1.6222 1.9974-.0487.0624-.0974.0763-.174.0763H1.4873zm47.585-14.5368V1.66432c0-.17339.0348-.22194.2158-.22194 1.0234.00694 2.0468.00694 3.0702 0 .181 0 .2019.05549.2019.215V31.3132c0 .1595-.0348.2081-.2019.2081-1.0304-.007-2.0607-.007-3.0841 0-.1602 0-.195-.0416-.195-.2012V16.4784l-.0069-.007zm13.3383 3.7794v11.0689c0 .1526-.0278.2012-.1949.1942-1.0373-.0069-2.0816 0-3.1189 0-.1393 0-.1671-.0347-.1671-.1734V9.15415c0-.14564.0348-.19419.188-.19419a228.4283 228.4283 0 0 0 3.0841 0c.1601 0 .2088.02774.2088.20113V20.2508z"/><path fill="#212121" d="M18.6138 17.0397c-.0557.0347-.1114.0208-.1602.0208h-3.829c-.1183 0-.1879-.0347-.2576-.1248-1.643-1.9558-3.286-3.9047-4.93593-5.8605-1.22529-1.4564-2.45754-2.91284-3.68979-4.37621-1.45503-1.72692-2.91006-3.45384-4.37205-5.18076-.12531-.15258-.25759-.30516-.3829-.45774.04177-.04854.0905-.02774.13227-.02774h3.86384c.11139 0 .17405.03468.24366.1179 1.59427 1.89337 3.18854 3.78674 4.7828 5.67317 1.5316 1.82402 3.0702 3.64108 4.6018 5.46508 1.3158 1.5605 2.6316 3.1279 3.9543 4.6884.014.0208.0279.0416.0488.0693v-.0069zm26.8586 14.3631h-3.112c-.2854 0-.5708-.0138-.8632-.0138-.1184 0-.188-.0347-.2646-.1249l-3.1955-3.6827c-1.3506-1.5535-2.6942-3.107-4.0448-4.6606-1.3576-1.5674-2.7151-3.1348-4.0727-4.6952-.5848-.6728-1.1696-1.3525-1.7544-2.0252-.0209-.0277-.0418-.0485-.0627-.0832h1.1557c.5221 0 1.0443.0139 1.5664.0208.4386 0 .8842.0208 1.3228.0208.0766 0 .1253.0347.174.0902 1.2671 1.4564 2.5272 2.9128 3.7942 4.3762 1.3506 1.5605 2.7012 3.114 4.0519 4.6745 1.4271 1.6437 2.8543 3.2874 4.2745 4.9311.3203.3675.6405.7351.9608 1.1027.0278.0277.0626.0485.0626.0763l.007-.007z"/><path fill="#8187C2" d="M8.23365 1.02637h3.98215c.1254 0 .2159.03467.2924.13177.8076.92935 1.6152 1.85869 2.4228 2.7811.6474.74209 1.2949 1.48418 1.9493 2.22627.8911 1.01951 1.7753 2.03901 2.6664 3.05158.7101.81141 1.4202 1.62291 2.1234 2.43431.3411.3884.6822.7768 1.0164 1.1652.0209.0208.0278.0416.0487.0763-.0626.0416-.1183.0277-.174.0277H18.767c-.1114 0-.195-.0347-.2646-.1179-.7449-.8531-1.4898-1.713-2.2348-2.5661-.6335-.72822-1.274-1.45644-1.9145-2.18466-.9746-1.10967-1.9423-2.22627-2.917-3.33593-.7171-.82532-1.4411-1.6437-2.15817-2.46901-.34113-.38838-.68226-.7837-1.0582-1.2137l.01392-.00693zM23.8838 19.9454c.4038 0 .7867-.0139 1.1696 0 .4804.0278.9607.0139 1.4481.0278.4734.0069.9537.0208 1.4271.0277.0836 0 .1393.0347.188.0902.6266.6935 1.2462 1.387 1.8727 2.0806.5361.5964 1.0722 1.1929 1.6082 1.7893.8633.964 1.7335 1.9281 2.5968 2.8851.6127.6797 1.2253 1.3594 1.8379 2.0391.7102.7906 1.4272 1.5812 2.1373 2.3719.014.0138.0279.0346.0488.0693-.4456 0-.8703.0208-1.288 0-.4664-.0277-.9329-.0138-1.3923-.0208-.4526 0-.9051 0-1.3576-.0277-.1044 0-.1601-.0555-.2158-.1179-.5361-.5965-1.0722-1.1929-1.6082-1.7894-.543-.6033-1.0791-1.1998-1.6152-1.8032-.9607-1.068-1.9214-2.1361-2.8822-3.2041-.731-.8115-1.455-1.616-2.186-2.4274-.5778-.645-1.1557-1.2831-1.7335-1.9281-.0139-.0138-.0279-.0346-.0487-.0693l-.007.0069z"/><path fill="#9873B4" d="M26.9401 9.30033H22.937c-.1113 0-.1879-.02774-.2645-.1179-.9677-1.19289-1.9354-2.37885-2.9031-3.5648-.9329-1.13741-1.8588-2.27482-2.7917-3.41916-.3133-.38145-.6196-.7629-.9259-1.14435.0557-.05548.1113-.03467.1531-.03467h3.829c.1184 0 .188.04161.2576.12483 1.0861 1.3316 2.1721 2.6632 3.2582 3.98787 1.0095 1.24144 2.0259 2.48288 3.0354 3.72432.1114.13177.2158.26354.355.43693v.00693zm3.5163 21.93597c-.557-.0208-1.0652 0-1.5804-.0277-.4038-.0208-.8076-.0069-1.2044-.0139h-1.2253c-.0974 0-.1671-.0277-.2367-.104-.9955-1.186-1.998-2.3719-2.9936-3.5648-.8493-1.0057-1.6917-2.0182-2.5411-3.0239-.2575-.3051-.5151-.6103-.7727-.9154-.0209-.0278-.0557-.0625-.0488-.0833.007-.0554.0627-.0346.1045-.0346 1.0303 0 2.0607 0 3.0841.0138.2436 0 .4943.0139.7379.0139.1114 0 .188.0277.2646.1179.8563 1.0264 1.7196 2.039 2.5759 3.0655.9189 1.0958 1.8449 2.1916 2.7638 3.2873.3481.4092.6893.8254 1.0722 1.2692z"/><path fill="#A78CC2" d="M63.7821 2.91211c.0765.27742.0208.5479-.0418.81144-.3063 1.28999-1.1139 2.12917-2.4227 2.39966-1.3089.27048-2.5481-.24968-3.286-1.41483-.3412-.5479-.4943-1.15128-.4456-1.79627h6.1961z"/><path fill="#9873B4" d="M63.782 2.91246h-6.1961c.0348-.6658.2715-1.25531.6893-1.76853.4873-.59645 1.1139-.9779 1.8797-1.10273 1.1696-.18726 2.1581.17338 2.9309 1.07499.4316.49935.6614 1.08192.7032 1.74079v.04854l-.007.00694z"/></g><defs><clipPath id="clip0_1782_1282"><path fill="#fff" d="M0 0h111v32H0z" transform="translate(.986)"/></clipPath></defs></svg>

<svg width="112" height="32" viewBox="0 0 112 32" fill="none" xmlns="http://www.w3.org/2000/svg">
<g clip-path="url(#clip0_1782_1282)">
<path d="M103.757 21.4228C101.077 21.4228 98.4034 21.4228 95.7231 21.4228C95.5142 21.4228 95.5282 21.4228 95.5351 21.6309C95.5769 22.4632 95.6883 23.2815 95.932 24.0722C96.4889 25.8892 97.5471 27.311 99.2876 28.171C100.22 28.6357 101.216 28.8368 102.26 28.8715C103.277 28.8992 104.279 28.8091 105.233 28.4415C106.646 27.8936 107.635 26.9157 108.199 25.5217C108.254 25.383 108.31 25.3622 108.442 25.4038C109.452 25.6881 110.454 25.9794 111.464 26.2499C111.617 26.2915 111.631 26.3401 111.582 26.4788C110.9 28.4345 109.605 29.8563 107.781 30.8273C106.681 31.4098 105.511 31.7566 104.272 31.9023C102.608 32.0964 100.958 32.041 99.3433 31.5902C96.649 30.8411 94.7067 29.1836 93.4118 26.7354C92.7643 25.5078 92.3884 24.1901 92.2004 22.8169C91.8941 20.5906 91.9707 18.3851 92.5833 16.2143C93.0915 14.4181 93.9548 12.8091 95.2775 11.4705C96.6142 10.1181 98.2085 9.24426 100.088 8.88361C102.219 8.47443 104.307 8.64088 106.312 9.487C108.442 10.3886 109.953 11.9421 110.9 14.0436C111.394 15.1394 111.68 16.2906 111.84 17.4766C112.007 18.7458 111.979 20.0219 111.986 21.2911C111.986 21.4436 111.902 21.4228 111.812 21.4228C109.125 21.4228 106.444 21.4228 103.757 21.4228ZM101.996 18.4267C103.249 18.4267 104.502 18.4267 105.755 18.4267C106.591 18.4267 107.433 18.4267 108.268 18.4267C108.408 18.4267 108.435 18.3921 108.435 18.2603C108.415 17.6569 108.352 17.0535 108.206 16.464C107.837 15.0423 107.134 13.8286 105.929 12.9408C104.335 11.7687 102.553 11.5884 100.673 11.9629C99.4129 12.2126 98.3686 12.8715 97.4984 13.7939C96.3218 15.0423 95.7161 16.5472 95.5491 18.2395C95.5351 18.3921 95.5699 18.4267 95.7301 18.4267C97.8186 18.4267 99.9141 18.4267 102.003 18.4267H101.996Z" fill="#212121"/>
<path d="M68.7882 20.2442C68.7882 16.5545 68.7882 12.8649 68.7882 9.17523C68.7882 8.98798 68.8439 8.9533 69.018 8.96023C70.0205 8.96717 71.016 8.96023 72.0185 8.96023C72.1508 8.96023 72.1786 8.99491 72.1786 9.11975C72.1786 10.1809 72.1786 11.2489 72.1786 12.31C72.1786 12.3725 72.1229 12.4765 72.2413 12.4834C72.3457 12.4973 72.4571 12.5181 72.5267 12.3725C73.0628 11.2351 73.8913 10.3543 74.9564 9.68152C75.7362 9.1891 76.5994 8.91862 77.5114 8.77991C78.3538 8.65508 79.2032 8.63427 80.0525 8.71056C81.7094 8.87007 83.2132 9.41104 84.4385 10.5693C85.3714 11.45 85.9631 12.5458 86.3182 13.7665C86.6176 14.7999 86.7429 15.854 86.7429 16.929C86.7429 21.7214 86.7429 26.5138 86.7429 31.3131C86.7429 31.4726 86.7081 31.5211 86.541 31.5211C85.5037 31.5142 84.4733 31.5142 83.436 31.5211C83.2828 31.5211 83.248 31.4865 83.248 31.3339C83.248 26.6802 83.248 22.0335 83.248 17.3798C83.248 16.3742 83.1088 15.3963 82.6702 14.4878C81.981 13.066 80.8531 12.1921 79.2867 11.9078C77.9361 11.665 76.6203 11.776 75.3741 12.3655C73.933 13.0521 73.0419 14.2103 72.5824 15.7084C72.3596 16.4227 72.2761 17.1579 72.2761 17.9069C72.2761 22.3733 72.2761 26.8397 72.2761 31.3131C72.2761 31.4795 72.2413 31.5281 72.0673 31.5281C71.0299 31.5211 69.9996 31.5211 68.9623 31.5281C68.823 31.5281 68.7812 31.4934 68.7812 31.3547C68.7812 27.6512 68.7812 23.9546 68.7812 20.2511L68.7882 20.2442Z" fill="#212121"/>
<path d="M1.4873 31.0082C1.82147 30.4811 2.13476 29.9817 2.44804 29.4893C2.63601 29.1911 2.83095 28.8929 3.01195 28.5877C3.08853 28.4629 3.17208 28.4143 3.32524 28.4143C6.02644 28.4143 8.72765 28.4143 11.4289 28.4213C11.5611 28.4213 11.6377 28.3796 11.7143 28.2825C14.0326 25.4043 16.3509 22.5331 18.6692 19.6549C20.3609 17.5535 22.0527 15.459 23.7444 13.3575C25.7842 10.833 27.8171 8.30162 29.8569 5.77713C31.0961 4.23746 32.3353 2.70474 33.5745 1.16508C33.6581 1.06798 33.7347 1.02637 33.86 1.02637C37.5428 1.02637 41.2256 1.02637 44.9154 1.02637C45.0547 1.02637 45.1034 1.0911 45.0616 1.22056C44.811 1.96265 44.5534 2.70474 44.3028 3.45376C44.261 3.5786 44.1984 3.61328 44.0661 3.61328C41.351 3.61328 38.6428 3.61328 35.9277 3.61328C35.7884 3.61328 35.6979 3.66182 35.6074 3.76586C34.0062 5.74245 32.398 7.71211 30.7968 9.68176C29.105 11.7624 27.4063 13.8499 25.7146 15.9306C24.0716 17.9488 22.4286 19.96 20.7926 21.9783C18.9059 24.2947 17.0192 26.618 15.1326 28.9345C14.5895 29.6003 14.0465 30.2661 13.5104 30.9319C13.4617 30.9943 13.413 31.0082 13.3364 31.0082C10.3219 31.0082 7.30046 31.0082 4.28597 31.0082C3.42967 31.0082 2.57336 31.0082 1.71705 31.0082H1.49427H1.4873Z" fill="#212121"/>
<path d="M49.0723 16.4714C49.0723 11.5334 49.0723 6.5954 49.0723 1.66432C49.0723 1.49093 49.1071 1.44238 49.2881 1.44238C50.3115 1.44932 51.3349 1.44932 52.3583 1.44238C52.5393 1.44238 52.5602 1.49787 52.5602 1.65738C52.5602 5.55508 52.5602 9.44585 52.5602 13.3436C52.5602 19.3358 52.5602 25.321 52.5602 31.3132C52.5602 31.4727 52.5254 31.5213 52.3583 31.5213C51.3279 31.5143 50.2976 31.5143 49.2742 31.5213C49.114 31.5213 49.0792 31.4797 49.0792 31.3201C49.0792 26.3752 49.0792 21.4233 49.0792 16.4784L49.0723 16.4714Z" fill="#212121"/>
<path d="M62.4106 20.2508C62.4106 23.9405 62.4106 27.6301 62.4106 31.3197C62.4106 31.4723 62.3828 31.5209 62.2157 31.5139C61.1784 31.507 60.1341 31.5139 59.0968 31.5139C58.9575 31.5139 58.9297 31.4792 58.9297 31.3405C58.9297 23.9474 58.9297 16.5473 58.9297 9.15415C58.9297 9.00851 58.9645 8.95996 59.1177 8.95996C60.148 8.9669 61.1784 8.9669 62.2018 8.95996C62.3619 8.95996 62.4106 8.9877 62.4106 9.16109C62.4106 12.8577 62.4106 16.5542 62.4106 20.2439V20.2508Z" fill="#212121"/>
<path d="M18.6138 17.0397C18.5581 17.0744 18.5024 17.0605 18.4536 17.0605C17.1796 17.0605 15.9056 17.0605 14.6246 17.0605C14.5063 17.0605 14.4367 17.0258 14.367 16.9357C12.724 14.9799 11.081 13.031 9.43107 11.0752C8.20578 9.6188 6.97353 8.16236 5.74128 6.69899C4.28625 4.97207 2.83122 3.24515 1.36923 1.51823C1.24392 1.36565 1.11164 1.21307 0.986328 1.06049C1.0281 1.01195 1.07683 1.03275 1.1186 1.03275C2.40655 1.03275 3.69449 1.03275 4.98244 1.03275C5.09383 1.03275 5.15649 1.06743 5.2261 1.15065C6.82037 3.04402 8.41464 4.93739 10.0089 6.82382C11.5405 8.64784 13.0791 10.4649 14.6107 12.2889C15.9265 13.8494 17.2423 15.4168 18.565 16.9773C18.579 16.9981 18.5929 17.0189 18.6138 17.0466V17.0397Z" fill="#212121"/>
<path d="M45.4724 31.4028C44.4281 31.4028 43.3978 31.4028 42.3604 31.4028C42.075 31.4028 41.7896 31.389 41.4972 31.389C41.3788 31.389 41.3092 31.3543 41.2326 31.2641C40.1675 30.0366 39.1023 28.809 38.0371 27.5814C36.6865 26.0279 35.3429 24.4744 33.9923 22.9208C32.6347 21.3534 31.2772 19.786 29.9196 18.2256C29.3348 17.5528 28.75 16.8731 28.1652 16.2004C28.1443 16.1727 28.1234 16.1519 28.1025 16.1172C28.4994 16.1172 28.8753 16.1172 29.2582 16.1172C29.7803 16.1172 30.3025 16.1311 30.8246 16.138C31.2632 16.138 31.7088 16.1588 32.1474 16.1588C32.224 16.1588 32.2727 16.1935 32.3214 16.249C33.5885 17.7054 34.8486 19.1618 36.1156 20.6252C37.4662 22.1857 38.8168 23.7392 40.1675 25.2997C41.5946 26.9434 43.0218 28.5871 44.442 30.2308C44.7623 30.5983 45.0825 30.9659 45.4028 31.3335C45.4306 31.3612 45.4654 31.382 45.4654 31.4098L45.4724 31.4028Z" fill="#212121"/>
<path d="M8.23365 1.02637H8.44251C9.7026 1.02637 10.9627 1.02637 12.2158 1.02637C12.3412 1.02637 12.4317 1.06104 12.5082 1.15814C13.3158 2.08749 14.1234 3.01683 14.931 3.93924C15.5784 4.68133 16.2259 5.42342 16.8803 6.16551C17.7714 7.18502 18.6556 8.20452 19.5467 9.21709C20.2568 10.0285 20.9669 10.84 21.6701 11.6514C22.0112 12.0398 22.3523 12.4282 22.6865 12.8166C22.7074 12.8374 22.7143 12.8582 22.7352 12.8929C22.6726 12.9345 22.6169 12.9206 22.5612 12.9206C21.2941 12.9206 20.034 12.9206 18.767 12.9206C18.6556 12.9206 18.572 12.8859 18.5024 12.8027C17.7575 11.9496 17.0126 11.0897 16.2676 10.2366C15.6341 9.50838 14.9936 8.78016 14.3531 8.05194C13.3785 6.94227 12.4108 5.82567 11.4361 4.71601C10.719 3.89069 9.995 3.07231 9.27793 2.247C8.9368 1.85862 8.59567 1.4633 8.21973 1.0333L8.23365 1.02637Z" fill="#8187C2"/>
<path d="M23.8838 19.9454C24.2876 19.9454 24.6705 19.9315 25.0534 19.9454C25.5338 19.9732 26.0141 19.9593 26.5015 19.9732C26.9749 19.9801 27.4552 19.994 27.9286 20.0009C28.0122 20.0009 28.0679 20.0356 28.1166 20.0911C28.7432 20.7846 29.3628 21.4781 29.9893 22.1717C30.5254 22.7681 31.0615 23.3646 31.5975 23.961C32.4608 24.925 33.331 25.8891 34.1943 26.8461C34.807 27.5258 35.4196 28.2055 36.0322 28.8852C36.7424 29.6758 37.4594 30.4664 38.1695 31.2571C38.1835 31.2709 38.1974 31.2917 38.2183 31.3264C37.7727 31.3264 37.348 31.3472 36.9303 31.3264C36.4639 31.2987 35.9974 31.3126 35.538 31.3056C35.0854 31.3056 34.6329 31.3056 34.1804 31.2779C34.076 31.2779 34.0203 31.2224 33.9646 31.16C33.4285 30.5635 32.8924 29.9671 32.3564 29.3706C31.8134 28.7673 31.2773 28.1708 30.7412 27.5674C29.7805 26.4994 28.8198 25.4313 27.859 24.3633C27.128 23.5518 26.404 22.7473 25.673 21.9359C25.0952 21.2909 24.5173 20.6528 23.9395 20.0078C23.9256 19.994 23.9116 19.9732 23.8908 19.9385L23.8838 19.9454Z" fill="#8187C2"/>
<path d="M26.9401 9.30033H26.7452C25.4781 9.30033 24.2041 9.30033 22.937 9.30033C22.8257 9.30033 22.7491 9.27259 22.6725 9.18243C21.7048 7.98954 20.7371 6.80358 19.7694 5.61763C18.8365 4.48022 17.9106 3.34281 16.9777 2.19847C16.6644 1.81702 16.3581 1.43557 16.0518 1.05412C16.1075 0.99864 16.1631 1.01945 16.2049 1.01945C17.4789 1.01945 18.753 1.01945 20.0339 1.01945C20.1523 1.01945 20.2219 1.06106 20.2915 1.14428C21.3776 2.47588 22.4636 3.80748 23.5497 5.13215C24.5592 6.37359 25.5756 7.61503 26.5851 8.85647C26.6965 8.98824 26.8009 9.12001 26.9401 9.2934V9.30033Z" fill="#9873B4"/>
<path d="M30.4564 31.2363C29.8994 31.2155 29.3912 31.2363 28.876 31.2086C28.4722 31.1878 28.0684 31.2017 27.6716 31.1947C27.2609 31.1947 26.8571 31.1947 26.4463 31.1947C26.3489 31.1947 26.2792 31.167 26.2096 31.0907C25.2141 29.9047 24.2116 28.7188 23.216 27.5259C22.3667 26.5202 21.5243 25.5077 20.6749 24.502C20.4174 24.1969 20.1598 23.8917 19.9022 23.5866C19.8813 23.5588 19.8465 23.5241 19.8534 23.5033C19.8604 23.4479 19.9161 23.4687 19.9579 23.4687C20.9882 23.4687 22.0186 23.4687 23.042 23.4825C23.2856 23.4825 23.5363 23.4964 23.7799 23.4964C23.8913 23.4964 23.9679 23.5241 24.0445 23.6143C24.9008 24.6407 25.7641 25.6533 26.6204 26.6798C27.5393 27.7756 28.4653 28.8714 29.3842 29.9671C29.7323 30.3763 30.0735 30.7925 30.4564 31.2363Z" fill="#9873B4"/>
<path d="M63.7821 2.91211C63.8586 3.18953 63.8029 3.46001 63.7403 3.72355C63.434 5.01354 62.6264 5.85272 61.3176 6.12321C60.0087 6.39369 58.7695 5.87353 58.0316 4.70838C57.6904 4.16048 57.5373 3.5571 57.586 2.91211C59.6537 2.91211 61.7144 2.91211 63.7821 2.91211Z" fill="#A78CC2"/>
<path d="M63.782 2.91246C61.7143 2.91246 59.6536 2.91246 57.5859 2.91246C57.6207 2.24666 57.8574 1.65715 58.2752 1.14393C58.7625 0.547483 59.3891 0.166035 60.1549 0.0411979C61.3245 -0.146058 62.313 0.214583 63.0858 1.11619C63.5174 1.61554 63.7472 2.19811 63.789 2.85698C63.789 2.87085 63.789 2.89165 63.789 2.90552L63.782 2.91246Z" fill="#9873B4"/>
</g>
<defs>
<clipPath id="clip0_1782_1282">
<rect width="111" height="32" fill="white" transform="translate(0.986328)"/>
</clipPath>
</defs>
</svg>
